src/topics/icons/crittercism.svg

<svg height="295" preserveAspectRatio="xMidYMid" viewBox="0 0 256 295" width="256" xmlns="http://www.w3.org/2000/svg"><path d="m123.44816 294.206044c-28.4187149-12.998348-53.5657739-31.59474-80.5206112-47.099702-9.0168224-5.186098-17.7945695-10.789659-26.6513953-16.255292-10.74000475-6.627907-16.30678461-16.051157-16.26080856-28.909738.1360891-36.766126.17470898-73.530413-.01471234-110.2946998-.07356168-14.3445269 6.26929387-23.9571989 18.5798404-31.2103802 29.531335-17.4010146 58.7941698-35.2765019 87.825285-53.4995682 14.622223-9.17865816 28.278948-9.27612738 42.880941-.12689389 26.971388 16.90079519 54.077027 33.60849089 81.526566 49.71849799 17.255731 10.1257648 22.956761 26.2504842 19.098451 45.4298521-1.399511 6.947901-5.66241 12.161584-11.576769 15.902196-10.602077 6.706985-21.305301 13.255814-31.95887 19.881882-3.096947 1.927316-6.168147 3.898768-10.041169 6.350211 2.221562 1.914443 3.808656 3.578776 5.671605 4.83852 12.933982 8.750161 25.95072 17.375268 38.886541 26.121751 8.544189 5.77827 13.995109 13.507763 14.936699 24.080415 1.278134 14.355561-4.671167 24.806836-16.810683 32.17036-20.935653 12.696745-41.810617 25.494638-62.711329 38.25391-3.135566 1.912604-6.206766 3.939228-9.412216 5.724938-11.392865 6.350212-22.831705 12.621345-34.252156 18.921902-3.063844.001839-6.129526.001839-9.195209.001839zm-108.6561133-148.456658c0 17.761467.2758563 35.526612-.1121816 53.282561-.2041336 9.349689 3.5953269 15.499446 11.451714 20.234978 30.1308626 18.166056 60.162417 36.493948 90.0762729 55.0131 8.281205 5.127249 15.755072 4.937828 23.95536-.141606 29.652711-18.359155 59.480132-36.438777 89.228474-54.643452 2.083635-1.274456 4.248187-2.508454 6.06516-4.110259 6.48814-5.717581 7.71662-14.355561 3.260622-21.616099-4.678523-7.620989-13.320181-10.401621-21.513113-6.581931-3.863827 1.802261-7.472027 4.174626-11.126203 6.403544-23.24549 14.180852-46.568219 28.23665-69.633483 42.704392-5.978725 3.749807-10.835635 3.799461-16.792292.069884-20.7425534-12.987314-41.6451038-25.728196-62.6727089-38.252072-5.965852-3.553029-8.4779832-8.020061-8.3161476-14.949571.3439009-14.690267.0570103-29.395246.1471234-44.094708.0165514-2.716265.1802261-5.561263 1.0041169-8.113853 1.4289355-4.430252 5.0371358-6.013667 9.4324459-4.421057 1.9861653.720905 3.8270462 1.90157 5.6476977 3.010512 16.7224081 10.186453 33.3988401 20.44279 50.1561896 30.572232 2.846837 1.721344 5.89413 3.315793 9.059121 4.266578 6.478944 1.951223 15.004743-1.480429 18.458463-6.975486 4.139684-6.587448 3.490502-14.600154-2.030302-20.277276-2.094669-2.153518-4.752084-3.832564-7.341455-5.421496-22.162294-13.603393-44.3668861-27.136902-66.5622829-40.6906411-8.6159114-5.2614989-17.1196412-10.7234534-25.888193-15.7164522-7.8214452-4.4541595-15.8617364-2.9112033-21.5829958 3.5732584-3.422457 3.8822175-4.4559986 8.4743052-4.4192177 13.5923588.1268939 17.7614671.0478151 35.5210941.0478151 53.2825611z" fill="#3a485d"/></svg>

<?xml version="1.0" encoding="UTF-8" standalone="no"?>
<svg width="256px" height="295px" viewBox="0 0 256 295" version="1.1" xmlns="http://www.w3.org/2000/svg" xmlns:xlink="http://www.w3.org/1999/xlink" preserveAspectRatio="xMidYMid">
    <g>
        <path d="M123.44816,294.206044 C95.0294451,281.207696 69.8823861,262.611304 42.9275488,247.106342 C33.9107264,241.920244 25.1329793,236.316683 16.2761535,230.85105 C5.53614875,224.223143 -0.0306311113,214.799893 0.0153449364,201.941312 C0.151434038,165.175186 0.190053918,128.410899 0.000632601111,91.6466122 C-0.0729290752,77.3020853 6.26992647,67.6894133 18.580473,60.436232 C48.111808,43.0352174 77.3746428,25.1597301 106.405758,6.9366638 C121.027981,-2.24199436 134.684706,-2.33946358 149.286699,6.80976991 C176.258087,23.7105651 203.363726,40.4182608 230.813265,56.5282679 C248.068996,66.6540327 253.770026,82.7787521 249.911716,101.95812 C248.512205,108.906021 244.249306,114.119704 238.334947,117.860316 C227.73287,124.567301 217.029646,131.11613 206.376077,137.742198 C203.27913,139.669514 200.20793,141.640966 196.334908,144.092409 C198.55647,146.006852 200.143564,147.671185 202.006513,148.930929 C214.940495,157.68109 227.957233,166.306197 240.893054,175.05268 C249.437243,180.83095 254.888163,188.560443 255.829753,199.133095 C257.107887,213.488656 251.158586,223.939931 239.01907,231.303455 C218.083417,244.0002 197.208453,256.798093 176.307741,269.557365 C173.172175,271.469969 170.100975,273.496593 166.895525,275.282303 C155.50266,281.632515 144.06382,287.903648 132.643369,294.204205 C129.579525,294.206044 126.513843,294.206044 123.44816,294.206044 L123.44816,294.206044 Z M14.7920467,145.749386 C14.7920467,163.510853 15.067903,181.275998 14.6798651,199.031947 C14.4757315,208.381636 18.275192,214.531393 26.1315791,219.266925 C56.2624417,237.432981 86.2939961,255.760873 116.207852,274.280025 C124.489057,279.407274 131.962924,279.217853 140.163212,274.138419 C169.815923,255.779264 199.643344,237.699642 229.391686,219.494967 C231.475321,218.220511 233.639873,216.986513 235.456846,215.384708 C241.944986,209.667127 243.173466,201.029147 238.717468,193.768609 C234.038945,186.14762 225.397287,183.366988 217.204355,187.186678 C213.340528,188.988939 209.732328,191.361304 206.078152,193.590222 C182.832662,207.771074 159.509933,221.826872 136.444669,236.294614 C130.465944,240.044421 125.609034,240.094075 119.652377,236.364498 C98.9098236,223.377184 78.0072732,210.636302 56.9796681,198.112426 C51.0138161,194.559397 48.5016849,190.092365 48.6635205,183.162855 C49.0074214,168.472588 48.7205308,153.767609 48.8106439,139.068147 C48.8271953,136.351882 48.99087,133.506884 49.8147608,130.954294 C51.2436963,126.524042 54.8518966,124.940627 59.2472067,126.533237 C61.233372,127.254142 63.0742529,128.434807 64.8949044,129.543749 C81.6173125,139.730202 98.2937445,149.986539 115.051094,160.115981 C117.897931,161.837325 120.945224,163.431774 124.110215,164.382559 C130.589159,166.333782 139.114958,162.90213 142.568678,157.407073 C146.708362,150.819625 146.05918,142.806919 140.538376,137.129797 C138.443707,134.976279 135.786292,133.297233 133.196921,131.708301 C111.034627,118.104908 88.8300349,104.571399 66.6346381,91.0176599 C58.0187267,85.756161 49.5149969,80.2942065 40.7464451,75.3012077 C32.9249999,70.8470482 24.8847087,72.3900044 19.1634493,78.8744661 C15.7409923,82.7566836 14.7074507,87.3487713 14.7442316,92.4668249 C14.8711255,110.228292 14.7920467,127.987919 14.7920467,145.749386 L14.7920467,145.749386 Z" fill="#3A485D"></path>
    </g>
</svg>
